X: 5
T: The Old Bush
R: reel
M: 4/4
L: 1/8
K: Dmix
A2GA cA~A2|d^cde fde=c|A2GA cA~A2|dfed cAdc|
A2GA cA~A2|d^cde ~f3g|afge fde^c|1 dfed cAdc:|2 dfed cA~A2||
|:eg~g2 edcd|egge c3d|eg~g2 afge|dfed cA~A2|
eg~g2 ag~g2|egge defg|afge fde^c|1 dfed cA~A2:|2 dfed cAdc||


Tune 1499	Setting 14892

